icons/fill-new-communication-message-chat-line-square.svg

<svg xmlns="http://www.w3.org/2000/svg" width="32px" height="32px" viewBox="0 0 32 32" version="1.1">
    <title>fill-new-communication-message-chat-line-square</title>
    <g id="fill-new-communication-message-chat-line-square" stroke-width="1" fill-rule="evenodd">
        <path d="M25,4 C27.209139,4 29,5.790861 29,8 L29,21 C29,23.209139 27.209139,25 25,25 L8,25 L4.70710678,28.2928932 C4.31658249,28.6834175 3.68341751,28.6834175 3.29289322,28.2928932 C3.10535684,28.1053568 3,27.8510029 3,27.5857864 L3,8 C3,5.790861 4.790861,4 7,4 L25,4 Z M20,16 L12,16 C11.4477153,16 11,16.4477153 11,17 C11,17.5522847 11.4477153,18 12,18 L20,18 C20.5522847,18 21,17.5522847 21,17 C21,16.4477153 20.5522847,16 20,16 Z M20,11 L12,11 C11.4477153,11 11,11.4477153 11,12 C11,12.5522847 11.4477153,13 12,13 L20,13 C20.5522847,13 21,12.5522847 21,12 C21,11.4477153 20.5522847,11 20,11 Z" id="&#24418;&#29366;" />
    </g>
</svg>

<svg xmlns="http://www.w3.org/2000/svg" viewBox="0 0 32 32"><path fill="currentColor" d="M25 4a4 4 0 0 1 4 4v13a4 4 0 0 1-4 4H8l-3.293 3.293A1 1 0 0 1 3 27.586V8a4 4 0 0 1 4-4zm-5 12h-8a1 1 0 0 0 0 2h8a1 1 0 0 0 0-2m0-5h-8a1 1 0 0 0 0 2h8a1 1 0 0 0 0-2"/></svg>
